X:1
T:Title
%%score ( 1 2 ) { 3 | 4 }
L:1/8
Q:1/4=96
M:3/4
K:Ab
V:1 treble nm="Grand Piano, Soprano"
V:2 treble 
V:3 bass nm="Choir Pad, Pacifica, Robert Lowry 1875"
V:4 bass 
V:1
 [CA][DB] [Ec]3 [DB] | [CA][DF] [CE]4 | [CA][DB] [Ec]3 [EA] | [DG][CA] [EB]4 | %4
w: By~Robert~Lowry * * *||||
 [CA][DB] [Ec]3 [EB] | [FA][DF] [CE]4 | [DG][CA] [EB]3 [EG] | [EG][=DF] E4 | [Ed][Ec] [EB]4 | %9
w: |||||
 [Ec][DB] [CA]4 | [DB][CA] [EG]3 [EG] | [EA][Ec] [EB]4 | [Ec][DB] [CA]3 [EG] | [DF][DA] [CE]4 | %14
w: |||||
 [CA]E [DF][FB] [EA]2 | G-[DG] [CA]4- | [CA]4 z2 |] %17
w: |||
V:2
 x6 | x6 | x6 | x6 | x6 | x6 | x6 | x6 | x6 | x6 | x6 | x6 | x6 | x6 | x6 | .E2 z2 z2 | x6 |] %17
V:3
 A,A, A,3 A, | A,A, A,4 | A,A, A,3 A, | E,A, G,4 | A,A, A,3 A, | A,A, A,4 | B,A, G,3 B, | %7
 B,A, G,4 | B,A, G,4 | A,E, E,4 | G,A, B,3 B, | A,A, G,4 | A,E, E,3 A, | A,A, A,4 | E,A, A,D C2 | %15
 B,2 A,4- | A,4 z2 |] %17
V:4
 A,,A,, A,,3 A,, | A,,A,, A,,4 | A,,A,, A,,3 C, | B,,A,, E,4 | A,,A,, A,,3 C, | D,D, A,,4 | %6
 E,E, E,3 E, | B,,B,, E,4 | E,E, E,4 | A,,A,, A,,4 | E,E, E,3 D, | C,A,, E,4 | A,,A,, A,,3 C, | %13
 D,F, z2 z2 | A,,C, D,B,, E,2 | E,2 A,,4- | A,,4 z2 |] %17

